src/standard/virtual-server-secured.svg

<svg xmlns="http://www.w3.org/2000/svg" viewBox="0 0 36 36">
  <path d="M23 22.38H5.62v-8.76h24.75V18a.63.63 0 0 0 .63.62.62.62 0 0 0 .62-.62v-5a.62.62 0 0 0-.62-.62H5a.63.63 0 0 0-.63.62v10a.63.63 0 0 0 .63.62h18a.62.62 0 0 0 0-1.24Z"/>
  <path d="M9 17.38a.62.62 0 1 0 0 1.24h6a.62.62 0 0 0 0-1.24Zm23.13 3.01-3-.64a.57.57 0 0 0-.26 0l-3 .64a.63.63 0 0 0-.5.61v3.45a3.63 3.63 0 1 0 7.25 0V21a.62.62 0 0 0-.49-.61Zm-14.99 4.5a.63.63 0 1 0 .63.62.62.62 0 0 0-.63-.62Zm-2.93 0a.63.63 0 1 0 .63.62.62.62 0 0 0-.63-.62Zm-5.86 0a.63.63 0 1 0 .63.62.62.62 0 0 0-.63-.62Zm2.93 0a.63.63 0 1 0 .63.62.62.62 0 0 0-.63-.62Zm-5.86 0a.63.63 0 1 0 .63.62.62.62 0 0 0-.63-.62Zm14.65 0a.63.63 0 1 0 .63.62.62.62 0 0 0-.63-.62ZM2.5 15.87a.63.63 0 1 0 .62.63.63.63 0 0 0-.62-.63Zm0 3.01a.63.63 0 1 0 .62.62.63.63 0 0 0-.62-.62Zm0-6.01a.63.63 0 1 0 .62.62.63.63 0 0 0-.62-.62Zm0 9.01a.63.63 0 1 0 .62.63.63.63 0 0 0-.62-.63Zm18.6-10.77a.63.63 0 1 0 0-1.25.63.63 0 0 0 0 1.25Zm9.3 0a.63.63 0 1 0-.62-.62.63.63 0 0 0 .62.62Zm-12.4 0a.63.63 0 1 0-.63-.62.63.63 0 0 0 .63.62Zm9.3 0a.63.63 0 1 0-.62-.62.63.63 0 0 0 .62.62Zm-12.4 0a.63.63 0 1 0-.63-.62.62.62 0 0 0 .63.62Zm9.3 0a.63.63 0 1 0-.62-.62.63.63 0 0 0 .62.62Zm-12.4 0a.63.63 0 1 0-.63-.62.62.62 0 0 0 .63.62Zm-6.2 0a.63.63 0 1 0-.6-.62.62.62 0 0 0 .6.62Zm3.1 0a.63.63 0 1 0-.63-.62.62.62 0 0 0 .63.62Zm24.8 1.59a.63.63 0 1 0 .63.63.63.63 0 0 0-.63-.63Zm0 2.84a.63.63 0 1 0 .63.62.62.62 0 0 0-.63-.62Zm0-4.43a.63.63 0 1 0-.62-.63.63.63 0 0 0 .62.63ZM2.49 9.86a.63.63 0 1 0 .63.62.62.62 0 0 0-.63-.62Zm0 15.03a.63.63 0 1 0 .63.62.62.62 0 0 0-.63-.62Zm20.51 0a.63.63 0 1 0 .63.62.62.62 0 0 0-.63-.62Zm10.5-6.51a.63.63 0 1 0 .63.62.62.62 0 0 0-.63-.62ZM26.38 18a.63.63 0 1 0 .62-.62.63.63 0 0 0-.62.62Z"/>
</svg>

<svg id="b41e3259-e9f7-458c-9674-87ae11978457" data-name="Icon" xmlns="http://www.w3.org/2000/svg" viewBox="0 0 36 36">
  <title>Secured virtual server icon - Black</title>
<desc>host, datacenter, computer, virtualization, infrastructure, client, secure, hardware, security</desc>
<metadata><?xpacket begin="﻿" id="W5M0MpCehiHzreSzNTczkc9d"?>
<x:xmpmeta xmlns:x="adobe:ns:meta/" x:xmptk="Adobe XMP Core 8.0-c001 1.000000, 0000/00/00-00:00:00        ">
   <rdf:RDF xmlns:rdf="http://www.w3.org/1999/02/22-rdf-syntax-ns#">
      <rdf:Description rdf:about=""
            xmlns:xmp="http://ns.adobe.com/xap/1.0/"
            xmlns:dc="http://purl.org/dc/elements/1.1/"
            xmlns:cq="http://www.day.com/jcr/cq/1.0"
            xmlns:tiff="http://ns.adobe.com/tiff/1.0/">
         <xmp:rhcc-effective-on>2023-12-08T17:34:34.448Z</xmp:rhcc-effective-on>
         <xmp:rhcc-metadata-complete-moderator>pending</xmp:rhcc-metadata-complete-moderator>
         <xmp:rhcc-translation-id>TRAdc79f4cd-27ba-40d5-bc19-6acefd1b555e</xmp:rhcc-translation-id>
         <xmp:brand-content-type>Icon</xmp:brand-content-type>
         <xmp:CreateDate>2023-12-08T17:34:34.448Z</xmp:CreateDate>
         <xmp:rhcc-effective-on-set-on-upload>true</xmp:rhcc-effective-on-set-on-upload>
         <xmp:rhcc-metadata-complete-uploader>pending</xmp:rhcc-metadata-complete-uploader>
         <xmp:rhcc-file-last-modified>2023-12-08T17:34:41.069Z</xmp:rhcc-file-last-modified>
         <xmp:rhcc-audience>rhcc-audience:internal</xmp:rhcc-audience>
         <xmp:rhcc-rights-restricted>no</xmp:rhcc-rights-restricted>
         <xmp:brand-content-subtype>Icon</xmp:brand-content-subtype>
         <xmp:rhcc-derivative-id>DERdc79f4cd-27ba-40d5-bc19-6acefd1b555e</xmp:rhcc-derivative-id>
         <xmp:brand-logo-color>Black</xmp:brand-logo-color>
         <xmp:rhcc-notify-portal-subscribers-on-change>yes</xmp:rhcc-notify-portal-subscribers-on-change>
         <dc:format>image/svg+xml</dc:format>
         <dc:modified>2024-02-09T20:13:26.200Z</dc:modified>
         <dc:title>
            <rdf:Alt>
               <rdf:li xml:lang="x-default">Secured virtual server icon - Black</rdf:li>
            </rdf:Alt>
         </dc:title>
         <dc:description>
            <rdf:Alt>
               <rdf:li xml:lang="x-default">host, datacenter, computer, virtualization, infrastructure, client, secure, hardware, security</rdf:li>
            </rdf:Alt>
         </dc:description>
         <cq:lastReplicationAction_scene7>Activate</cq:lastReplicationAction_scene7>
         <cq:lastReplicationAction_publish>Activate</cq:lastReplicationAction_publish>
         <cq:lastReplicated_publish>2024-02-09T21:49:43.466Z</cq:lastReplicated_publish>
         <cq:lastReplicatedBy>workflow-process-service</cq:lastReplicatedBy>
         <cq:lastReplicationAction>Activate</cq:lastReplicationAction>
         <cq:lastReplicatedBy_publish>workflow-process-service</cq:lastReplicatedBy_publish>
         <cq:isDelivered>true</cq:isDelivered>
         <cq:lastReplicated>2024-02-09T21:49:43.466Z</cq:lastReplicated>
         <cq:lastReplicatedBy_scene7>workflow-process-service</cq:lastReplicatedBy_scene7>
         <cq:lastReplicated_scene7>2024-02-09T21:49:43.466Z</cq:lastReplicated_scene7>
         <tiff:ImageLength>36</tiff:ImageLength>
         <tiff:ImageWidth>36</tiff:ImageWidth>
      </rdf:Description>
   </rdf:RDF>
</x:xmpmeta>
                                                                                                    
                                                                                                    
                                                                                                    
                                                                                                    
                                                                                                    
                                                                                                    
                                                                                                    
                                                                                                    
                                                                                                    
                                                                                                    
                                 
<?xpacket end="w"?></metadata>
<g>
    <path d="M23,22.38H5.62V13.62H30.37V18a.63.63,0,0,0,.63.62.62.62,0,0,0,.62-.62V13a.62.62,0,0,0-.62-.62H5a.63.63,0,0,0-.63.62V23a.63.63,0,0,0,.63.62H23a.62.62,0,0,0,0-1.24Z"/>
    <path d="M9,17.38a.62.62,0,1,0,0,1.24h6a.62.62,0,0,0,0-1.24Z"/>
    <path d="M32.13,20.39l-3-.64a.57.57,0,0,0-.26,0l-3,.64a.63.63,0,0,0-.5.61v3.45a3.63,3.63,0,1,0,7.25,0V21A.62.62,0,0,0,32.13,20.39Z"/>
    <path d="M17.14,24.89a.63.63,0,1,0,.63.62A.62.62,0,0,0,17.14,24.89Z"/>
    <path d="M14.21,24.89a.63.63,0,1,0,.63.62A.62.62,0,0,0,14.21,24.89Z"/>
    <path d="M8.35,24.89a.63.63,0,1,0,.63.62A.62.62,0,0,0,8.35,24.89Z"/>
    <path d="M11.28,24.89a.63.63,0,1,0,.63.62A.62.62,0,0,0,11.28,24.89Z"/>
    <path d="M5.42,24.89a.63.63,0,1,0,.63.62A.62.62,0,0,0,5.42,24.89Z"/>
    <path d="M20.07,24.89a.63.63,0,1,0,.63.62A.62.62,0,0,0,20.07,24.89Z"/>
    <path d="M2.5,15.87a.63.63,0,1,0,.62.63A.63.63,0,0,0,2.5,15.87Z"/>
    <path d="M2.5,18.88a.63.63,0,1,0,.62.62A.63.63,0,0,0,2.5,18.88Z"/>
    <path d="M2.5,12.87a.63.63,0,1,0,.62.62A.63.63,0,0,0,2.5,12.87Z"/>
    <path d="M2.5,21.88a.63.63,0,1,0,.62.63A.63.63,0,0,0,2.5,21.88Z"/>
    <path d="M21.1,11.11a.63.63,0,1,0,0-1.25.63.63,0,0,0,0,1.25Z"/>
    <path d="M30.4,11.11a.63.63,0,1,0-.62-.62A.63.63,0,0,0,30.4,11.11Z"/>
    <path d="M18,11.11a.63.63,0,1,0-.63-.62A.63.63,0,0,0,18,11.11Z"/>
    <path d="M27.3,11.11a.63.63,0,1,0-.62-.62A.63.63,0,0,0,27.3,11.11Z"/>
    <path d="M14.9,11.11a.63.63,0,1,0-.63-.62A.62.62,0,0,0,14.9,11.11Z"/>
    <path d="M24.2,11.11a.63.63,0,1,0-.62-.62A.63.63,0,0,0,24.2,11.11Z"/>
    <path d="M11.8,11.11a.63.63,0,1,0-.63-.62A.62.62,0,0,0,11.8,11.11Z"/>
    <path d="M5.6,11.11A.63.63,0,1,0,5,10.49.62.62,0,0,0,5.6,11.11Z"/>
    <path d="M8.7,11.11a.63.63,0,1,0-.63-.62A.62.62,0,0,0,8.7,11.11Z"/>
    <path d="M33.5,12.7a.63.63,0,1,0,.63.63A.63.63,0,0,0,33.5,12.7Z"/>
    <path d="M33.5,15.54a.63.63,0,1,0,.63.62A.62.62,0,0,0,33.5,15.54Z"/>
    <path d="M33.5,11.11a.63.63,0,1,0-.62-.63A.63.63,0,0,0,33.5,11.11Z"/>
    <path d="M2.49,9.86a.63.63,0,1,0,.63.62A.62.62,0,0,0,2.49,9.86Z"/>
    <path d="M2.49,24.89a.63.63,0,1,0,.63.62A.62.62,0,0,0,2.49,24.89Z"/>
    <path d="M23,24.89a.63.63,0,1,0,.63.62A.62.62,0,0,0,23,24.89Z"/>
    <path d="M33.5,18.38a.63.63,0,1,0,.63.62A.62.62,0,0,0,33.5,18.38Z"/>
    <path d="M26.38,18a.63.63,0,1,0,.62-.62A.63.63,0,0,0,26.38,18Z"/>
  </g>
</svg>
